outputs/icons/file/pdf_attach_round.svg

<svg xmlns="http://www.w3.org/2000/svg" width="1200" height="1200" fill="none"><g fill="#000" clip-path="url(#a)"><path d="M828.76 50H157.079C98.186 50 50 99.5 50 160v880c0 60.5 47.65 110 106.544 110h886.376c58.895 0 107.08-49.5 107.08-110V380zm214.16 990H157.079V160H775.22v275h267.7z"/><path d="M198.291 950V601h135c17 0 32.166 2.67 45.5 8q20 7.501 33.5 22 14 14.504 21 35c4.666 13.67 7 29 7 46q0 25.501-7 46-7 20.504-21 35-13.5 14.505-33.5 22.5-20 7.5-45.5 7.5h-59.5v127zm75.5-187.5h40.5c17.666 0 29.834-3.33 36.5-10q10.5-9.997 10.5-33v-15q0-22.995-10.5-33-10-9.999-36.5-10h-40.5zM482.095 601h112.5q70.501 0 104.5 45c22.665 30 34 73.17 34 129.5q-.001 84.501-34 129.5-33.999 45-104.5 45h-112.5zm107.5 290c22.335 0 38.665-7.165 49-21.5q15.501-21.496 15.5-62.5v-63.5q.001-40.499-15.5-62c-10.335-14.33-26.665-21.5-49-21.5h-33.5v231zM779.9 950V601h231.5v61.5H854.9v80h140V804h-140v146z"/></g><defs><clipPath id="a"><path fill="#fff" d="M0 0h1200v1200H0z"/></clipPath></defs></svg>

<svg width="1200" height="1200" viewBox="0 0 1200 1200" fill="none" xmlns="http://www.w3.org/2000/svg"><g clip-path="url(#clip0_238_2703)"><path d="M828.76 50H157.079C98.186 50 50 99.5 50 160V1040C50 1100.5 97.65 1150 156.544 1150H1042.92C1101.815 1150 1150 1100.5 1150 1040V380L828.76 50ZM1042.92 1040H157.079V160H775.22V435H1042.92V1040Z" fill="#1D1E23"/><path d="M198.291 950V601H333.291C350.291 601 365.457 603.67 378.791 609C392.125 614 403.291 621.335 412.291 631C421.624 640.67 428.625 652.335 433.291 666C437.957 679.67 440.291 695 440.291 712C440.291 729 437.957 744.335 433.291 758C428.625 771.67 421.624 783.335 412.291 793C403.291 802.67 392.125 810.17 378.791 815.5C365.457 820.5 350.291 823 333.291 823H273.791V950H198.291ZM273.791 762.5H314.291C331.957 762.5 344.125 759.17 350.791 752.5C357.791 745.835 361.291 734.835 361.291 719.5V704.5C361.291 689.17 357.791 678.17 350.791 671.5C344.125 664.835 331.957 661.5 314.291 661.5H273.791V762.5Z" fill="#1D1E23"/><path d="M482.095 601H594.595C641.595 601 676.43 616 699.095 646C721.76 676 733.095 719.17 733.095 775.5C733.095 831.835 721.76 875 699.095 905C676.43 935 641.595 950 594.595 950H482.095V601ZM589.595 891C611.93 891 628.26 883.835 638.595 869.5C648.93 855.17 654.095 834.335 654.095 807V743.5C654.095 716.5 648.93 695.835 638.595 681.5C628.26 667.17 611.93 660 589.595 660H556.095V891H589.595Z" fill="#1D1E23"/><path d="M779.9 950V601H1011.4V662.5H854.9V742.5H994.9V804H854.9V950H779.9Z" fill="#1D1E23"/></g><defs><clipPath id="clip0_238_2703"><path width="24" fill="white" d="M0 0H1200V1200H0V0z"/></clipPath></defs></svg>
